img/te.svg

<svg width="22" height="20" viewBox="0 0 22 20" fill="none" xmlns="http://www.w3.org/2000/svg">
<path d="M8.63243 13.1612L8.26851 18.7367C8.78918 18.7367 9.01468 18.493 9.2851 18.2005L11.7262 15.6594L16.7844 19.6942C17.712 20.2573 18.3656 19.9608 18.6159 18.7646L21.936 1.81862L21.937 1.81762C22.2312 0.323909 21.441 -0.260196 20.5372 0.106243L1.02133 8.24476C-0.310587 8.8079 -0.290421 9.61666 0.794914 9.9831L5.78434 11.6735L17.3738 3.77462C17.9192 3.38122 18.4151 3.59889 18.0072 3.99228L8.63243 13.1612Z" fill="black"/>
</svg>

<svg width="22" height="20" fill="none" xmlns="http://www.w3.org/2000/svg"><path d="M8.632 13.161l-.363 5.576c.52 0 .746-.244 1.016-.536l2.441-2.542 5.058 4.035c.928.563 1.582.267 1.832-.93l3.32-16.945.001-.001c.294-1.494-.496-2.078-1.4-1.712L1.021 8.245C-.31 8.808-.29 9.617.795 9.983l4.99 1.69 11.589-7.898c.545-.394 1.041-.176.633.217l-9.375 9.17z" fill="#000"/></svg>
